!!!COM: Bach, Johann Sebastian
!!!OPR: Joh. Seb. Bachs vierstimmige Choralgesänge
!!!XEN: Four-part Chorales
!!!OTL: 8. Allein Gott in der Höh' sei Ehr'
!!!SCT: BWV 260
!!!SCA: Thematisch-systematisches Verzeichnis der musikalischen Werke Johann Sebastian Bach: Bach-Werke-Verzeichnis (Schmieder)
!!!YOR: Bach Gesellschaft Edition xxxix
!!!ENC: Steven Rasmussen
!!!CDT: 1685/3//-1750/7/28/
!!!OCY: Deutschland
!!!YEC: Copyright (c) 1994, 2000 Center for Computer Assisted Research in the Humanities
!!!YEM: Rights to all derivative editions reserved
!!!YEN: United States of America
**kern	**kern	**kern	**kern	**silbe
*I:[BASSO]	*I:[TENORE]	*I:[ALTO]	*I:[SOPRANO]	*I:[SOPRANO]
*>[A,A,B]	*>[A,A,B]	*>[A,A,B]	*>[A,A,B]	*
*>A	*>A	*>A	*>A	*
*clefF4	*clefGv2	*clefG2	*clefG2	*
*k[f#]	*k[f#]	*k[f#]	*k[f#]	*
*G:	*G:	*G:	*G:	*
*M4/4	*M4/4	*M4/4	*M4/4	*
4GG	8BL	4d	8gL	Al-da-
.	8cJ	.	8aJ	.
=1	=1	=1	=1	=1
8GL	4d	4g	4b	-lein-rum,
8F#J	.	.	.	.
4E	8eL	4g	4cc	Gottdass
.	8GJ	.	.	.
4D	8AL	4f#	4dd	innun
.	8BJ	.	.	.
4AA	8cL	8eL	4cc	derund
.	8dJ	8f#J	.	.
=2	=2	=2	=2	=2
8EL	8eL	8gL	4b	HÃ¶h'nim-
8DJ	8BJ	8f#J	.	.
4C	4c	4e	4a	sei-mer-
4BB;	4F#;	4d#;	4b;	Ehr'-mehr
8EL	8GL	4e	4b	unduns
8F#J	8AJ	.	.	.
=3	=3	=3	=3	=3
4G	8BL	8dL	4b	DankrÃ¼h-
.	8cJ	8eJ	.	.
4F#	4d	4f#	8aL	fÃ¼r-ren
.	.	.	8bJ	.
8EL	4.e	4.g	8ccL	sei-kann
8DJ	.	.	8bJ	.
8CL	.	.	4a	-nekein
8AAJ	16dLL	8f#	.	.
.	16cJJ	.	.	.
=4	=4	=4	=4	=4
8BBL	8dL	4g	8gL	Gna-Scha-
8CJ	16cL	.	8eJ	.
.	16BJJ	.	.	.
4D	4A	4d	4f#	.
4GG;	4B;	4d;	4g;	-de,-de.
=:|!	=:|!	=:|!	=:|!	=:|!
*>B	*>B	*>B	*>B	*
4G	4B	8dL	4g	Ein
.	.	8eJ	.	.
=5	=5	=5	=5	=5
8DL	4A	4f#	4a	Wohl-
8dJ	.	.	.	.
8cL	4d	4g#	4b	-ge-
8BJ	.	.	.	.
4A	8eL	8aL	4cc	-fall'n
.	8fnJ	8AJ	.	.
4G	8fL	8dL	4b	Gott
.	8eJ	8eJ	.	.
=6	=6	=6	=6	=6
8FnL	16eLL	(8A	8.aL	an
.	16dJ	.	.	.
8CJ	8e	4a)	.	.
.	.	.	16bJk	.
8DL	8fnJ	.	4bt	uns
8EJ	16eLL	8g#	.	.
.	16dJJ	.	.	.
4AA;	4c;	4e;	4a;	hat,
4F#	4A	4d	4a	nun
=7	=7	=7	=7	=7
8GL	4G	4d	4b	ist
8F#J	.	.	.	.
4E	8GL	4g	4cc	gross
.	8AJ	.	.	.
4BB	4B	8f#L	4dd	Fried
.	.	8g#J	.	.
8CL	4E	4a	4cc	ohn'
8DJ	.	.	.	.
=8	=8	=8	=8	=8
8EL	8eL	8gL	4b	Un-
8DJ	8BJ	8f#J	.	.
4C	4c	4e	4a	-ter-
4BB;	4F#;	4d#;	4b;	-lass,
4E	4G	8BL	4g	all'
.	.	8c#J	.	.
=9	=9	=9	=9	=9
4D	4F#	8dL	4a	Fehd'
.	.	8eJ	.	.
4D#	8BL	4f#	4b	hat
.	8AJ	.	.	.
8EL	4.G	4.e	8ccL	nun
8DnJ	.	.	8bJ	.
8CL	.	.	4a	ein
8AAJ	8F#	16dLL	.	.
.	.	16cJJ	.	.
=10	=10	=10	=10	=10
8BBL	8dL	4g	8gL	En-
8CJ	16cL	.	8eJ	.
.	16BJJ	.	.	.
4D	4A	4d	4f#	.
4GG;	4B;	4d;	4g;	-de.
==|!	==|!	==|!	==|!	==|!
*-	*-	*-	*-	*-
!!!RWG: Key is interpreted using the Humdrum key tool.
!!!URL-pdf: https://s9.imslp.org/files/imglnks/usimg/6/6b/IMSLP24489-PMLP09471-CCARH_Bach_Chorales.pdf#page=4 Musedata edition
!!!URL-pdf: https://s9.imslp.org/files/imglnks/usimg/7/7a/IMSLP04155-Bach_-_BGA_253-438.pdf#page=6 	Bach-Gesellschaft Ausgabe, Band 39 (pp.175-276) Leipzig: Breitkopf und Härtel, 1892. Plate B.W. XXXIX.
!!!END: 1994/05/03
!!!EMD: Converted from MuseData to Humdrum Dec 19, 2000, by Andreas Kornstaedt using muse2kern.
!!!EED: Craig Stuart Sapp
!!!EEV: 2024/03/31
!!!filter-keyboard: satb2gs
